modules/hawcons-stroke/icons/two-fingers-swipe-up.svg

<?xml version="1.0" encoding="UTF-8" standalone="no"?>
<svg width="32px" height="32px" viewBox="0 0 32 32" version="1.1" xmlns="http://www.w3.org/2000/svg" xmlns:xlink="http://www.w3.org/1999/xlink" xmlns:sketch="http://www.bohemiancoding.com/sketch/ns">
    <!-- Generator: Sketch 3.0.3 (7891) - http://www.bohemiancoding.com/sketch -->
    <title>icon 35 two fingers swipe up</title>
    <desc>Created with Sketch.</desc>
    <defs></defs>
    <g id="Page-1" stroke="none" stroke-width="1" fill="none" fill-rule="evenodd" sketch:type="MSPage">
        <g id="icon-35-two-fingers-swipe-up" sketch:type="MSArtboardGroup" fill="#929292">
            <path d="M10,13.0274335 C7.75002477,13.2758772 6,15.1813036 6,17.495728 L6,31 L15,31 L15,17.495728 C15,15.1819578 13.2460491,13.2764312 11,13.0275375 L11,6.950001 L14.25,10.200001 L15,9.450001 L10.5,4.950001 L6,9.450001 L6.75,10.200001 L10,6.950001 L10,6.950001 L10,13.0274335 L10,13.0274335 Z M21,10.0274511 C18.7500248,10.276064 17,12.1829929 17,14.5050269 L17,31 L26,31 L26,14.5050269 C26,12.1864709 24.2460491,10.2770029 22,10.0275945 L22,3.950001 L25.25,7.200001 L26,6.450001 L21.5,1.950001 L17,6.450001 L17.75,7.200001 L21,3.950001 L21,3.950001 L21,10.0274511 L21,10.0274511 L21,10.0274511 Z M10.5,14 C8.56700338,14 7,15.5632794 7,17.4914967 L7,30 L14,30 L14,17.4914967 C14,15.5631963 12.4290634,14 10.5,14 L10.5,14 Z M10.5,15 C9.11928813,15 8,16.1285541 8,17.5097752 L8,21 L13,21 L13,17.5097752 C13,16.1236646 11.8903379,15 10.5,15 L10.5,15 Z M10.5,16 C9.67157288,16 9,16.6785455 9,17.5008327 L9,20 L12,20 L12,17.5008327 C12,16.6719457 11.3342028,16 10.5,16 L10.5,16 Z M8,24 L8,25 L13,25 L13,24 L8,24 L8,24 Z M8,26 L8,27 L13,27 L13,26 L8,26 L8,26 Z M21.5,11 C19.5670034,11 18,12.5710144 18,14.5070349 L18,30 L25,30 L25,14.5070349 C25,12.570153 23.4290634,11 21.5,11 L21.5,11 Z M21.5,12 C20.1192881,12 19,13.1285541 19,14.5097752 L19,18 L24,18 L24,14.5097752 C24,13.1236646 22.8903379,12 21.5,12 L21.5,12 Z M21.5,13 C20.6715729,13 20,13.6785455 20,14.5008327 L20,17 L23,17 L23,14.5008327 C23,13.6719457 22.3342028,13 21.5,13 L21.5,13 Z M19,21 L19,22 L24,22 L24,21 L19,21 L19,21 Z M19,23 L19,24 L24,24 L24,23 L19,23 L19,23 Z" id="two-fingers-swipe-up" sketch:type="MSShapeGroup"></path>
        </g>
    </g>
</svg>

<svg width="32" height="32" viewBox="0 0 32 32" xmlns="http://www.w3.org/2000/svg"><path d="M10 13.027c-2.25.249-4 2.154-4 4.469V31h9V17.496a4.502 4.502 0 0 0-4-4.468V6.95l3.25 3.25.75-.75-4.5-4.5L6 9.45l.75.75L10 6.95v6.077zm11-3c-2.25.25-4 2.156-4 4.478V31h9V14.505a4.508 4.508 0 0 0-4-4.477V3.95l3.25 3.25.75-.75-4.5-4.5-4.5 4.5.75.75L21 3.95v6.077zM10.5 14A3.496 3.496 0 0 0 7 17.491V30h7V17.491A3.498 3.498 0 0 0 10.5 14zm0 1C9.12 15 8 16.129 8 17.51V21h5v-3.49c0-1.386-1.11-2.51-2.5-2.51zm0 1c-.828 0-1.5.679-1.5 1.5V20h3v-2.5c0-.828-.666-1.5-1.5-1.5zM8 24v1h5v-1H8zm0 2v1h5v-1H8zm13.5-15a3.504 3.504 0 0 0-3.5 3.507V30h7V14.507A3.506 3.506 0 0 0 21.5 11zm0 1c-1.38 0-2.5 1.129-2.5 2.51V18h5v-3.49c0-1.386-1.11-2.51-2.5-2.51zm0 1c-.828 0-1.5.679-1.5 1.5V17h3v-2.5c0-.828-.666-1.5-1.5-1.5zM19 21v1h5v-1h-5zm0 2v1h5v-1h-5z" fill="#929292" fill-rule="evenodd"/></svg>
